X: 3
T: The Moving Pint
R: reel
M: 4/4
L: 1/8
K: G
G3B A3d | B2BA BGEF | GABG A2 (3Bcd | eA (3cBA EA (3cBA |
G3B A^GAd | B2BA BE~E2 | GABG ABcd | ecAF G4 ||
